src/assets/icons/weeks,simple,10.svg

<svg width="48" height="48" viewBox="0 0 48 48" fill="none" xmlns="http://www.w3.org/2000/svg">
<rect opacity="0.2" x="5" y="5" width="38" height="38" rx="4" fill="black"/>
<path d="M5 13C5 9.22876 5 7.34315 6.17157 6.17157C7.34315 5 9.22876 5 13 5H35C38.7712 5 40.6569 5 41.8284 6.17157C43 7.34315 43 9.22876 43 13V15H5V13Z" fill="black"/>
<path d="M18.8757 20.5455H15.407L11.0859 23.2812V26.554L15.0831 24.0483H15.1854V38H18.8757V20.5455ZM29.8679 38.3835C34.2571 38.3835 36.9077 35.0426 36.9162 29.2898C36.9247 23.5795 34.2401 20.3068 29.8679 20.3068C25.4872 20.3068 22.8281 23.571 22.8196 29.2898C22.8026 35.0256 25.4702 38.375 29.8679 38.3835ZM29.8679 35.3239C27.8651 35.3239 26.5696 33.3125 26.5781 29.2898C26.5866 25.3267 27.8736 23.3324 29.8679 23.3324C31.8537 23.3324 33.1491 25.3267 33.1491 29.2898C33.1577 33.3125 31.8622 35.3239 29.8679 35.3239Z" fill="black"/>
</svg>

<svg xmlns="http://www.w3.org/2000/svg" width="48" height="48" fill="none" viewBox="0 0 48 48">
  <rect width="38" height="38" x="5" y="5" fill="#000" opacity=".2" rx="4"/>
  <path fill="#000" d="M5 13c0-3.771 0-5.657 1.172-6.828C7.343 5 9.229 5 13 5h22c3.771 0 5.657 0 6.828 1.172C43 7.343 43 9.229 43 13v2H5v-2zM18.876 20.546h-3.469l-4.321 2.735v3.273l3.997-2.506h.102V38h3.69V20.546zm10.992 17.837c4.39 0 7.04-3.34 7.048-9.093.009-5.71-2.676-8.983-7.048-8.983-4.38 0-7.04 3.264-7.048 8.983-.017 5.736 2.65 9.085 7.048 9.093zm0-3.06c-2.003 0-3.298-2.01-3.29-6.033.009-3.963 1.296-5.958 3.29-5.958 1.986 0 3.281 1.995 3.281 5.958.009 4.023-1.287 6.034-3.281 6.034z"/>
</svg>
